X:337
T:B337-  O Fie! What Mean I, Foolish Maid
Q:1/4=120
L:1/4
M:6/4
K:Am
B|(cd)ee2e|(eB)BB2B|(Bc)dd2d|\
(dA)AA2B|(cd)ee2A|(^G3G2||B|(E^G)Be2e|\
c2B(cA)e|f2ef2f|d2cB2d|e2d(e/f/g)(f/d/)|\
d2cc3|^Fzz^Gzz|AzzzzA|BzzzzB|\
czcdcd|Bzzczz|dzzezz|fzzzzf|\
e3^G2A|(A3A2)|]

